X: 94
T: Flogging Reel
R:reel
M:C|
L:1/8
K:G
"G"BG (3GGG BGcG|BG (3GGG Bd gd|BG (3GGG BGcB|"D"AGFG ABcA:|
"G"~g3d BGBd|"C"~g3e "D"fgaf|"G"~g3d BGBd|"D" AGFG ABcd|
"G"~g3d BGBd|"C"~g3e "D"fga2|"G"bgaf gedB|"D" AGFG ABcA||
"G"Bdgd Bdgd|Bdgd BGG2|"Dm7(F)"Ac=fc Acfc|Ac=fc A=FF2|
"G"Bdgd Bdgd|Bdef ~g3a|bgaf gedB|"D"AGFG ABcA|]


